packages/gestalt/src/icons/angled-pin.svg

<svg xmlns="http://www.w3.org/2000/svg" width="24" height="24"><path d="M13.988 19.153c1.497-1.497 1.997-3.707 1.493-5.616l4.259-4.463 2.922-.267-.017-.018a.3.3 0 0 0 .264-.081.308.308 0 0 0 .001-.437L15.73 1.09a.31.31 0 0 0-.438.001.305.305 0 0 0-.081.265l-.017-.018-.267 2.923-4.464 4.259c-1.909-.505-4.119-.004-5.616 1.492l3.809 3.809-5.332 5.332c-.762.762-2.613 2.955-2.285 3.809.853.328 3.047-1.524 3.808-2.286l5.332-5.332 3.809 3.809Z"/></svg>

<svg height="24" width="24" xmlns="http://www.w3.org/2000/svg"><path d="M13.988,19.153 C15.485,17.656 15.985,15.446 15.481,13.537 L19.740,9.074 L22.662,8.807 L22.645,8.789 C22.739,8.804 22.837,8.780 22.909,8.708 C23.030,8.587 23.031,8.391 22.910,8.271 L15.730,1.090 C15.609,0.970 15.413,0.970 15.292,1.091 C15.220,1.163 15.197,1.262 15.211,1.356 L15.194,1.338 L14.927,4.261 L10.463,8.520 C8.554,8.015 6.344,8.516 4.847,10.012 L8.656,13.821 L3.324,19.153 C2.562,19.915 0.711,22.108 1.039,22.962 C1.892,23.290 4.086,21.438 4.847,20.676 C5.609,19.915 10.179,15.344 10.179,15.344 L13.988,19.153 Z"/></svg>
